assets/media/logo-2.svg

<?xml version="1.0" encoding="UTF-8" standalone="no"?>
<svg
   width="187"
   height="60"
   viewBox="0 0 187 60"
   fill="none"
   version="1.1"
   id="svg976"
   sodipodi:docname="logo-2.svg"
   xml:space="preserve"
   inkscape:version="1.2.1 (9c6d41e410, 2022-07-14)"
   xmlns:inkscape="http://www.inkscape.org/namespaces/inkscape"
   xmlns:sodipodi="http://sodipodi.sourceforge.net/DTD/sodipodi-0.dtd"
   xmlns="http://www.w3.org/2000/svg"
   xmlns:svg="http://www.w3.org/2000/svg"><sodipodi:namedview
     id="namedview978"
     pagecolor="#505050"
     bordercolor="#eeeeee"
     borderopacity="1"
     inkscape:showpageshadow="0"
     inkscape:pageopacity="0"
     inkscape:pagecheckerboard="0"
     inkscape:deskcolor="#505050"
     showgrid="false"
     inkscape:zoom="4.5753968"
     inkscape:cx="112.55854"
     inkscape:cy="35.406765"
     inkscape:window-width="1366"
     inkscape:window-height="705"
     inkscape:window-x="-8"
     inkscape:window-y="-8"
     inkscape:window-maximized="1"
     inkscape:current-layer="g1076" /><path
     d="M0 30C0 20.6812 0 16.0218 1.52241 12.3463C3.55229 7.44577 7.44577 3.55229 12.3463 1.52241C16.0218 0 20.6812 0 30 0V0C39.3188 0 43.9782 0 47.6537 1.52241C52.5542 3.55229 56.4477 7.44577 58.4776 12.3463C60 16.0218 60 20.6812 60 30V30C60 39.3188 60 43.9782 58.4776 47.6537C56.4477 52.5542 52.5542 56.4477 47.6537 58.4776C43.9782 60 39.3188 60 30 60V60C20.6812 60 16.0218 60 12.3463 58.4776C7.44577 56.4477 3.55229 52.5542 1.52241 47.6537C0 43.9782 0 39.3188 0 30V30Z"
     fill="url(#paint0_linear)"
     id="path958" /><g
     clip-path="url(#clip0)"
     id="g962"
     transform="matrix(1,0,0,-1,0,58.9995)"><path
       d="m 44.5313,31.7861 -8.8582,-15.4942 0.0288,-0.0465 c -1.7105,-2.9965 -5.9899,-2.9965 -7.7005,0 L 14.4492,39.9434 C 14.144,40.4845 14,41.0605 14,41.6249 c 0,1.7629 1.3938,3.3746 3.3405,3.3746 1.1923,0 2.2923,-0.6458 2.8913,-1.6815 l 10.707,-18.7408 c 0.3917,-0.6866 1.3708,-0.6866 1.7624,0 l 3.3578,5.8707 c 0.3398,0.5935 -0.0864,1.3382 -0.766,1.3382 h -3.7725 c -1.843,0 -3.3348,1.5069 -3.3348,3.3688 v 0.0058 c 0,1.8619 1.4918,3.3688 3.3348,3.3688 h 9.1519 2.0677 c 2.5054,0 4.072,-2.7404 2.8222,-4.9339 z"
       fill="#ffffff"
       id="path960" /></g><defs
     id="defs974"><linearGradient
       id="paint0_linear"
       x1="8.5"
       y1="4"
       x2="51.5"
       y2="55"
       gradientUnits="userSpaceOnUse"><stop
         stop-color="#6964EE"
         id="stop966" /><stop
         offset="0.673777"
         stop-color="#9B92FF"
         id="stop968" /></linearGradient><clipPath
       id="clip0"><rect
         width="32"
         height="31"
         fill="white"
         transform="translate(14 14)"
         id="rect971" /></clipPath><linearGradient
       id="paint0_linear-9"
       x1="22.7306"
       y1="17.2023"
       x2="42.6758"
       y2="32.9132"
       gradientUnits="userSpaceOnUse"><stop
         stop-color="#5D59EA"
         id="stop32" /><stop
         offset="1"
         stop-color="#9A91FF"
         id="stop34" /></linearGradient><clipPath
       id="clip0-4"><rect
         width="32"
         height="31"
         fill="white"
         transform="translate(14 14)"
         id="rect37" /></clipPath></defs><g
     style="fill:none"
     id="g1076"><text
       xml:space="preserve"
       style="font-style:normal;font-variant:normal;font-weight:bold;font-stretch:normal;font-size:17.3333px;font-family:sans-serif;-inkscape-font-specification:'sans-serif Bold';fill:#292930;fill-opacity:1"
       x="77.581818"
       y="26.136364"
       id="text767-9"><tspan
         sodipodi:role="line"
         id="tspan765-2"
         x="77.581818"
         y="26.136364">Shadow</tspan></text><text
       xml:space="preserve"
       style="font-style:normal;font-variant:normal;font-weight:bold;font-stretch:normal;font-size:17.3333px;font-family:sans-serif;-inkscape-font-specification:'sans-serif Bold';fill:#292930;fill-opacity:1"
       x="100.60909"
       y="44.054546"
       id="text821-0"><tspan
         sodipodi:role="line"
         id="tspan819-3"
         x="100.60909"
         y="44.054546">Luminous</tspan></text></g></svg>

<svg width="187" height="60" viewBox="0 0 187 60" fill="none" xmlns="http://www.w3.org/2000/svg">
<path d="M0 30C0 20.6812 0 16.0218 1.52241 12.3463C3.55229 7.44577 7.44577 3.55229 12.3463 1.52241C16.0218 0 20.6812 0 30 0V0C39.3188 0 43.9782 0 47.6537 1.52241C52.5542 3.55229 56.4477 7.44577 58.4776 12.3463C60 16.0218 60 20.6812 60 30V30C60 39.3188 60 43.9782 58.4776 47.6537C56.4477 52.5542 52.5542 56.4477 47.6537 58.4776C43.9782 60 39.3188 60 30 60V60C20.6812 60 16.0218 60 12.3463 58.4776C7.44577 56.4477 3.55229 52.5542 1.52241 47.6537C0 43.9782 0 39.3188 0 30V30Z" fill="url(#paint0_linear)"/>
<g clip-path="url(#clip0)">
<path d="M44.5313 31.7861L35.6731 16.2919L35.7019 16.2454C33.9914 13.2489 29.712 13.2489 28.0014 16.2454L14.4492 39.9434C14.144 40.4845 14 41.0605 14 41.6249C14 43.3878 15.3938 44.9995 17.3405 44.9995C18.5328 44.9995 19.6328 44.3537 20.2318 43.318L30.9388 24.5772C31.3305 23.8906 32.3096 23.8906 32.7012 24.5772L36.059 30.4479C36.3988 31.0414 35.9726 31.7861 35.293 31.7861H31.5205C29.6775 31.7861 28.1857 33.293 28.1857 35.1549V35.1607C28.1857 37.0226 29.6775 38.5295 31.5205 38.5295H40.6724H42.7401C45.2455 38.5295 46.8121 35.7891 45.5623 33.5956L44.5313 31.7861Z" fill="white"/>
</g>
<path d="M93.916 35.776H86.132L84.844 39.5H80.728L87.756 19.928H92.32L99.348 39.5H95.204L93.916 35.776ZM92.852 32.64L90.024 24.464L87.196 32.64H92.852ZM105.055 26.256C105.559 25.5093 106.25 24.9027 107.127 24.436C108.023 23.9693 109.04 23.736 110.179 23.736C111.504 23.736 112.699 24.0627 113.763 24.716C114.846 25.3693 115.695 26.3027 116.311 27.516C116.946 28.7107 117.263 30.1013 117.263 31.688C117.263 33.2747 116.946 34.684 116.311 35.916C115.695 37.1293 114.846 38.072 113.763 38.744C112.699 39.416 111.504 39.752 110.179 39.752C109.022 39.752 108.004 39.528 107.127 39.08C106.268 38.6133 105.578 38.016 105.055 37.288V39.5H101.135V18.78H105.055V26.256ZM113.259 31.688C113.259 30.7547 113.063 29.952 112.671 29.28C112.298 28.5893 111.794 28.0667 111.159 27.712C110.543 27.3573 109.871 27.18 109.143 27.18C108.434 27.18 107.762 27.3667 107.127 27.74C106.511 28.0947 106.007 28.6173 105.615 29.308C105.242 29.9987 105.055 30.8107 105.055 31.744C105.055 32.6773 105.242 33.4893 105.615 34.18C106.007 34.8707 106.511 35.4027 107.127 35.776C107.762 36.1307 108.434 36.308 109.143 36.308C109.871 36.308 110.543 36.1213 111.159 35.748C111.794 35.3747 112.298 34.8427 112.671 34.152C113.063 33.4613 113.259 32.64 113.259 31.688ZM125.208 39.752C123.938 39.752 122.8 39.528 121.792 39.08C120.784 38.6133 119.981 37.988 119.384 37.204C118.805 36.42 118.488 35.552 118.432 34.6H122.38C122.454 35.1973 122.744 35.692 123.248 36.084C123.77 36.476 124.414 36.672 125.18 36.672C125.926 36.672 126.505 36.5227 126.916 36.224C127.345 35.9253 127.56 35.5427 127.56 35.076C127.56 34.572 127.298 34.1987 126.776 33.956C126.272 33.6947 125.46 33.4147 124.34 33.116C123.182 32.836 122.23 32.5467 121.484 32.248C120.756 31.9493 120.121 31.492 119.58 30.876C119.057 30.26 118.796 29.4293 118.796 28.384C118.796 27.5253 119.038 26.7413 119.524 26.032C120.028 25.3227 120.737 24.7627 121.652 24.352C122.585 23.9413 123.677 23.736 124.928 23.736C126.776 23.736 128.25 24.2027 129.352 25.136C130.453 26.0507 131.06 27.292 131.172 28.86H127.42C127.364 28.244 127.102 27.7587 126.636 27.404C126.188 27.0307 125.581 26.844 124.816 26.844C124.106 26.844 123.556 26.9747 123.164 27.236C122.79 27.4973 122.604 27.8613 122.604 28.328C122.604 28.8507 122.865 29.252 123.388 29.532C123.91 29.7933 124.722 30.064 125.824 30.344C126.944 30.624 127.868 30.9133 128.596 31.212C129.324 31.5107 129.949 31.9773 130.472 32.612C131.013 33.228 131.293 34.0493 131.312 35.076C131.312 35.972 131.06 36.7747 130.556 37.484C130.07 38.1933 129.361 38.7533 128.428 39.164C127.513 39.556 126.44 39.752 125.208 39.752ZM138.253 27.208V34.712C138.253 35.2347 138.375 35.6173 138.617 35.86C138.879 36.084 139.308 36.196 139.905 36.196H141.725V39.5H139.261C135.957 39.5 134.305 37.8947 134.305 34.684V27.208H132.457V23.988H134.305V20.152H138.253V23.988H141.725V27.208H138.253ZM147.625 26.396C148.129 25.5747 148.782 24.9307 149.585 24.464C150.406 23.9973 151.339 23.764 152.385 23.764V27.88H151.349C150.117 27.88 149.183 28.1693 148.549 28.748C147.933 29.3267 147.625 30.3347 147.625 31.772V39.5H143.705V23.988H147.625V26.396ZM153.177 31.688C153.177 30.12 153.485 28.7293 154.101 27.516C154.736 26.3027 155.585 25.3693 156.649 24.716C157.732 24.0627 158.936 23.736 160.261 23.736C161.418 23.736 162.426 23.9693 163.285 24.436C164.162 24.9027 164.862 25.4907 165.385 26.2V23.988H169.333V39.5H165.385V37.232C164.881 37.96 164.181 38.5667 163.285 39.052C162.408 39.5187 161.39 39.752 160.233 39.752C158.926 39.752 157.732 39.416 156.649 38.744C155.585 38.072 154.736 37.1293 154.101 35.916C153.485 34.684 153.177 33.2747 153.177 31.688ZM165.385 31.744C165.385 30.792 165.198 29.98 164.825 29.308C164.452 28.6173 163.948 28.0947 163.313 27.74C162.678 27.3667 161.997 27.18 161.269 27.18C160.541 27.18 159.869 27.3573 159.253 27.712C158.637 28.0667 158.133 28.5893 157.741 29.28C157.368 29.952 157.181 30.7547 157.181 31.688C157.181 32.6213 157.368 33.4427 157.741 34.152C158.133 34.8427 158.637 35.3747 159.253 35.748C159.888 36.1213 160.56 36.308 161.269 36.308C161.997 36.308 162.678 36.1307 163.313 35.776C163.948 35.4027 164.452 34.88 164.825 34.208C165.198 33.5173 165.385 32.696 165.385 31.744ZM181.506 39.5L176.242 32.892V39.5H172.322V18.78H176.242V30.568L181.45 23.988H186.546L179.714 31.772L186.602 39.5H181.506Z" fill="#292930"/>
<defs>
<linearGradient id="paint0_linear" x1="8.5" y1="4" x2="51.5" y2="55" gradientUnits="userSpaceOnUse">
<stop stop-color="#6964EE"/>
<stop offset="0.673777" stop-color="#9B92FF"/>
</linearGradient>
<clipPath id="clip0">
<rect width="32" height="31" fill="white" transform="translate(14 14)"/>
</clipPath>
</defs>
</svg>
